X: 1551
T: Otomobil Uçar Gider
C: Münir Nurettin Selçuk
O: Turkey
F: http://compmusic.upf.edu/node/140
N: mahur--sarki--nimsofyan--otomobil_ucar--munir_nurettin_selcuk
N: makam= mahur
N: form= sarki
N: usul= nimsofyan = 2/4
M: 2/4
L: 1/16
K: C ^9/8f   
Q: 1/4=128
%%MIDI tuningsystem comma53
g8  | d8  | e8  | B8  | z2Bc dcBc  | A2AA A2AA  | \
w:  ARANAĞME  |   |   |   |   |   | 
z2AB cBAB  | 
w:   | 
G2GG G2GG  | g8  | d8  | e8  | B8  | z2Bc dcBc  | \
w:   |  ARANAĞME  |   |   |   |   | 
A2AA A2AA  | 
w:   | 
z2AB cBAB  | G8  | z2d2 e2f2  | g8  | z2fg agfe  | d8  | 
w:   |   |   |   |   |   | 
z2cd edcB  | A8  | z2AB cBAB  | G8  | z2AB cBAB  | 
w:   |   |   |   |   | 
G2AB cBAB  | G2AB cBAB  | G2GG G2GG  | z2AB cBAB  | 
w:   |   |   |   | 
G2AB cBAB  | G2AB cBAB  | G2GG G2GG  | z2d2 e2f2  | 
w:   |   |   |  O to mo  | 
g8  | f2g4e2  | d6z2  | f4 d4  | f4 a4  | g2f4e2  | \
w:  bil   |  u çar  gi  |  der    |  Öm rüm   |  gi bi   |  ge çer  gi  | 
d6z2  | a4 b4  | a4 g4  | f2e4b2  | 
w:  der    |  Ben  ta  |  li hin   |  pe şin de  | 
a6z2  | g4 f4  | e4 a4  | g2f4e2  | d6z2  | a4 b4  | \
w:  yim    |  Ta lih   |  ben den   |  ka çar  gi  |  der    |  Ben  ta  | 
a4 g4  | f2e4b2  | a6z2  | g4 f4  | 
w:  li hin   |  pe şin de  |  yim    |  Ta lih   | 
e4 a4  | g2f4e2  | d6z2  | d6ef  | g8  | d6ef  | a8  | \
w:  ben den   |  ka çar  gi  |  der    |  Yâr   |   |  yâr   |   | 
z2g2 f2e2  | d4 c'4  | 
w:  gü zel  yol  |  cu  gü  | 
b4 a3g  | g6z2  | d6ef  | g8  | d6ef  | a8  | z2g2 f2e2  | \
w:  le  gü  |  le    |  Yâr   |   |  yâr   |   |  gü zel  yol  | 
d4 c'4  | b4 a3g  | 
w:  cu  gü  |  le  gü  | 
g6z2  | z2d2 e2f2  | g8  | f4 g2e2  | d6z2  | \
w:  le    |  O to mo  |  bil   |  tut tu  yo  |  lu    | 
f4 d4  | f4 a4  | g2f4e2  | d6z2  | 
w:  Bu  yol  |  da  ma  |  ce ra  do  |  lu    | 
a2b6  | a4 g4  | f4 e2b2  | a6z2  | g4 f4  | e4 a4  | \
w:  Di rek  |  si yon   |  yâr_ e lin  |  de    |  Gön lüm   |  ar dı  | 
g4 f2e2  | d6z2  | a2b6  | a4 g4  | 
w:  na  ko şu  |  lu    |  Di rek  |  si yon   | 
f4 e2b2  | a6z2  | g4 f4  | e4 a4  | g4 f2e2  | \
w:  yâr_ e lin  |  de    |  Gön lüm   |  ar dı  |  na  ko şu  | 
d6z2  | d6ef  | g8  | d6ef  | 
w:  lu    |  Yâr   |   |  yâr   | 
a8  | z2g2 f2e2  | d4 c'4  | b4 a3g  | g6z2  | \
w:   |  gü zel  yol  |  cu  gü  |  le  gü  |  le    | 
d6ef  | g8  | d6ef  | a8  | z2g2 f2e2  | 
w:  Yâr   |   |  yâr   |   |  gü zel  yol  | 
d4 c'4  | b4 a3g  | g6z2  | |


